X:17
T:Road to Boston
Z:Jack Campin  *  May 2000  *  http://www.campin.me.uk/
M:2/4
L:1/8
K:D
f2 fe/f/|gf ed|cd ef   |dA FA|f2 fe/f/|gf ed|cd ef   |d2 d2:|
a2 ag/a/|ba gf|g2 gf/g/|ag fe|f2 fe/f/|gf ed|cd ef/e/|d2 d2:|

